X:1
T:Title
%%score { ( 1 3 ) | ( 2 4 ) }
L:1/8
Q:1/4=100
M:6/8
K:C
V:1 treble nm="Grand Piano"
V:3 treble 
V:2 bass 
V:4 bass 
V:1
 [Ec]2 [Ec] EFA | G2 E C3 | G2 A B2 c | d6 | [Ec]2 [Ec] EFA | G2 E C3 | [^Fd]2 [Fc] [GB]2 [FA] | %7
w: J.~Lincoln~Hall * * * *|||||||
 G6 | d2 ^c d2 c | e2 d G3 | d2 ^c d2 c | e2 d G3 | c2 A G2 E | C2 D E3 | B2 B B3 | %15
w: ||||||||
[M:15/16] B3/2-B3/2-B3/2- B3 |[M:3/4] z2 z B z2 | [FB]3 [FB]3 | z2 z B z2 | A4 z2 | z2 z B z2 | %21
w: ||||||
 [FB]3 [FB]2 c | d2 ^c d2 c | e3 d3 | z2 z B z2 | [FB]3 [FB]3 | z2 z B z2 | A4 z2 | c2 c c2 c | %29
w: ||||||||
 e2 c G2 E/F/ | GA B e2 d | [Ec]6 |] %32
w: |||
V:2
 [C,G,]2 [C,G,] E,F,A, | G,2 E, C,3 | [G,B,F]2 [G,CF] [G,DF]2 [G,CF] | [G,B,F]6 | %4
 [C,G,]2 [C,G,] E,F,A, | G,2 E, C,3 | [D,A,]2 [D,A,] [D,D]2 [D,C] | [G,B,]6 | %8
 [G,B,F]2 [G,B,F] [G,B,F]2 [G,B,F] | [G,B,F]2 [G,B,F] [G,B,F]3 | %10
 [G,B,F]2 [G,B,F] [G,B,F]2 [G,B,F] | [G,B,F]2 [G,B,F] [G,B,F]3 | C2[K:bass] A, G,2 E, | %13
 C,2 D, E,3 | [E,^G,E]2 [E,G,E] [E,G,E]3 |[M:15/16] [E,^G,E]3 [D,=G,]3- [D,G,] z/ | %16
[M:3/4] [C,G,]4 z E | [D,G,]3 [G,,G,]3 | [D,G,]4 z F | C,3 G,,3 | [C,G,]4 z E | %21
 [D,G,]3 [G,,G,]2[K:treble] [G,F] | [G,B,F]2 [G,B,F] [G,B,F]2 [G,B,F] | [G,B,F]6 | [C,G,]4 z E | %25
 [D,G,]3 [G,,G,]3 | [D,G,]4 z F | C,3 G,,3 | [G,CE]2 [G,CE] [^G,C_E]2 [G,CE] | %29
 [G,CE]3 [G,CE]2 E,/F,/ | G,[K:treble]A, B, [G,B,G]2 [G,B,F] | [C,C]6 |] %32
V:3
 x6 | x6 | x6 | x6 | x6 | x6 | x6 | x6 | x6 | x6 | x6 | x6 | x6 | x6 | x6 |[M:15/16] z3 F3/2- F3 | %16
[M:3/4] [Ec]2 [Ec]E- [EA]G | x6 | [FB]2 [FB]F- [FA]G | [G,E]3- [G,EG]3 | [Ec]2 [Ec]E- [EA]G | x6 | %22
 x6 | x6 | [Ec]2 [Ec]E- [EA]G | x6 | [FB]2 [FB]F- [FA]G | [G,E]3- [G,EG]3 | x6 | x6 | x6 | x6 |] %32
V:4
 x6 | x6 | x6 | x6 | x6 | x6 | x6 | x6 | x6 | x6 | x6 | x6 | x2[K:bass] x4 | x6 | x6 | %15
[M:15/16] x15/2 |[M:3/4] z2 z [G,,G,]3 | x6 | z2 z [G,,G,]3 | x6 | z2 z [G,,G,]3 | x5[K:treble] x | %22
 x6 | x6 | z2 z [G,,G,]3 | x6 | z2 z [G,,G,]3 | x6 | x6 | x6 | x[K:treble] x5 | x6 |] %32

